X:1
T:Lenn a délibábos Hortobágyon
T:Lenn, a délibábos Hortobágyon 
C:Hungarian song
Z:Public Domain
L:1/8
M:4/4
K:C
V:1 treble 
%%MIDI program 0
V:1
"C" GGGF E2 C2 |"G" B,C D2"C" C2 z2!fine! |"G" dddc B2 G2 |"D" ^FG A2"G" G2 z2 |"C" cBce"G" dcBA | %5
w: Lenn, a dé- li- bá- bos|Hor- to- bá- gyon|Meg- a- kadt a sze- mem~egy|bar- na lá- nyon,|Hul- lám- zott a gön- dör ha- ja|
w: Mi- kor be- le- néz- tem|a sze- mé- be.||||
"F" BA F2"G" D2 z2!D.C.! |] %6
w: a sö- tét- be,|
w: |

